icons/svg/24x24/emoji activated/outline.svg

<svg width="24" height="24" fill="none" xmlns="http://www.w3.org/2000/svg">
  <path fill-rule="evenodd" clip-rule="evenodd" d="M12 13H7c0 2 2.266 4 5 4s5-2 5-4h-5zM8.978 7.647c-.829 0-1.5.839-1.5 1.875s.671 1.875 1.5 1.875c.828 0 1.5-.839 1.5-1.875s-.672-1.875-1.5-1.875zm6 0c-.829 0-1.5.839-1.5 1.875s.671 1.875 1.5 1.875 1.5-.839 1.5-1.875-.671-1.875-1.5-1.875zM12 2c-1.8 0-3.555.192-5.246.559a5.473 5.473 0 00-4.196 4.195A24.776 24.776 0 002 12c0 1.8.192 3.555.558 5.246a5.473 5.473 0 004.196 4.195C8.445 21.808 10.2 22 12 22c1.8 0 3.555-.192 5.245-.558a5.472 5.472 0 004.197-4.196c.366-1.69.558-3.445.558-5.246 0-1.8-.192-3.555-.558-5.246a5.472 5.472 0 00-4.196-4.195A24.711 24.711 0 0012 2zm0 2c1.626 0 3.249.173 4.823.513a3.486 3.486 0 012.664 2.664 22.886 22.886 0 010 9.646 3.484 3.484 0 01-2.664 2.664 22.886 22.886 0 01-9.646 0 3.486 3.486 0 01-2.664-2.664A22.82 22.82 0 014 12c0-1.626.172-3.249.513-4.823a3.486 3.486 0 012.664-2.664A22.886 22.886 0 0112 4z" fill="#000"/>
</svg>

<svg xmlns="http://www.w3.org/2000/svg" width="24" height="24" viewBox="0 0 24 24">
  <path fill-rule="evenodd" d="M12,13 L7,13 C7,15 9.266,17 12,17 C14.734,17 17,15 17,13 L12,13 Z M8.978,7.647 C8.149,7.647 7.478,8.486 7.478,9.522 C7.478,10.558 8.149,11.397 8.978,11.397 C9.806,11.397 10.478,10.558 10.478,9.522 C10.478,8.486 9.806,7.647 8.978,7.647 L8.978,7.647 Z M14.978,7.647 C14.149,7.647 13.478,8.486 13.478,9.522 C13.478,10.558 14.149,11.397 14.978,11.397 C15.807,11.397 16.478,10.558 16.478,9.522 C16.478,8.486 15.807,7.647 14.978,7.647 L14.978,7.647 Z M12,2 C10.2,2 8.445,2.192 6.754,2.559 C4.652,3.013 3.013,4.652 2.558,6.754 C2.192,8.445 2,10.2 2,12 C2,13.8 2.192,15.555 2.558,17.246 C3.013,19.348 4.652,20.987 6.754,21.441 C8.445,21.808 10.2,22 12,22 C13.8,22 15.555,21.808 17.245,21.442 C19.349,20.988 20.987,19.349 21.442,17.246 C21.808,15.556 22,13.801 22,12 C22,10.2 21.808,8.445 21.442,6.754 C20.987,4.652 19.349,3.013 17.246,2.559 C15.555,2.192 13.8,2 12,2 L12,2 Z M12,4 C13.626,4 15.249,4.173 16.823,4.513 C18.154,4.801 19.199,5.847 19.487,7.177 C19.827,8.751 20,10.374 20,12 C20,13.627 19.827,15.25 19.487,16.823 C19.199,18.154 18.153,19.2 16.823,19.487 C15.249,19.827 13.626,20 12,20 C10.374,20 8.75,19.827 7.177,19.487 C5.846,19.199 4.801,18.153 4.513,16.823 C4.172,15.249 4,13.626 4,12 C4,10.374 4.172,8.751 4.513,7.177 C4.801,5.847 5.846,4.801 7.177,4.513 C8.751,4.173 10.374,4 12,4 L12,4 Z"/>
</svg>
